X:17
T:No.137 Dermot McLaughlin's
M:4/4
L:1/8
C:barndance
K:G
Bc||dBdg b2g2|abag e2eg|f<a AB cdef|
(3gba (3gfe dcBc|dBdg b2g2|abag e2eg|
f<a AB cdef|[1(3gfg ba g2Bc:|[2(3gfg ba g2ag||
fdAd f2f2|e^deg b2b2|^c'age ^cABc|
(3d^cd (3fdB Aa^g=g|fdAd f2f2|e^deg b2b2|
^c'age ^cABc|[1d2fe dfag:|[2d2fe d4||
